X: 100313
T: THE LAIRD O' COCKPEN (for Two Violins)
B: K\"ohler's Violin Repository, v.3, 1885 p.222-223
F: http://www.archive.org/details/klersviolinrepos03rugg
F: http://www.youscribe.com/catalogue/partitions-et-tablatures/art-musique-et-cinema/partitions-de-musique-romantique/partition-book-3-kohler-s-violon-repository-of-danse-music-kohler-s-1358681
Z: 2012 John Chambers <jc:trillian.mit.edu>
%: The first page of this tune is illegible in the IMSLP (archive.org) edition.
%: Page 222 transcribed from the youscribe.com edition.
N: The 2nd part has a final repeat but no initial repeat.
M: 6/8
L: 1/16
U: S=!/!
K: Gm
V: 1
"Primo"\
D2 |\
G2A2G2 B4{d}cB | A2F2F2 (.F4.c2) |\
G2A2G2 g4ag | f2d2d2 (d4e2) |\
f2{a}g2f2 f2e2d2 | c2d2B2 A2B2c2 |\
d2e2d2 (d3edc) | B2G2G2 G4 :|
d2 |\
g6 g2a2b2 | a2f2f2 f2g2a2 |\
g6 g2a2g2 | f2d2d2 (d4=e2) |\
f2g2f2 f2e2d2 | c2d2B2 A2B2c2 |\
d6 d4cd | B2G2G2 G4 :|
|: z2 |\
GG,A,B,CD E=EFGAB | c=Bdced  c_BAG^F2 |\
e2eeee ^c2cccc | d2dddd BFGABc |
(db)agfe (dg)fedc | (Bf)edcB (Ae)dcBA |\
GBAcBd cedcBA | B2G2G2 G4 :|
|: vgua |\
(bB)bag^f g2a2b2 | aAagfe dcBAG^F |\
GG,A,B,CD E=EFGAB | c=Bdced c_BAG^FD |
GBdgb2 FAcfa2 | EGBeg2 D^FAdf2 |\
gdecdB cABGA^F | G2G,2G,2 G,4 :|
|: vgug |\
g2G2A2 B4cB | AF=EFGA Bcdef2 |\
g6 g3(bag) | f2d2d2 (d4=e2) |
f2F2(f2 e2)E2(e2 | d2)D2(d2 c2)(B2c2) |\
fbagfe dgfedc | B2G2G2 G4 :|
G2 |\
D2G2B2 B2A2G2 | F2A2B2 c2B2A2 |\
B2d2g2 g2^f2g2 | f2d2d2 A2B2c2 |\
d2d'2d'2 c2c'2c'2 | B2b2b2 (A2a2)a2 |\
(ba^g=g^f=f =e_edcBA) | B2G2G2 "_Fine."G4 |]
%
V: 2
"Secundo"\
G,2 |\
G,2B,2D2 G,2B,2D2 | A,2C2F2 A,2C2F2 | G,2B,2D2 (G,4A,2) | B,2D2F2 F2B2c2 |\
d2e2d2 d2c2B2 | A2B2G2 F2G2A2 | B2c2B2 (B3cBA) | G2D2B,2 G,4 :|
z2 |\
D2G2B2 D2G2B2 | D2F2A2 D2F2A2 | D2G2B2 D2G2B2 | B2d2f2 (B4c2) |\
d2e2d2 d2c2B2 | A2B2G2 F2G2A2 | B6 B4AB | G2D2B,2 G,4 :|
|: z2 |\
[G2B,2]z2[G2B,2] [B2G2]z2[B2G2] | [A2^F2]z2[A2F2] [B2G2]z2[A2F2] |\
[E2C2][E2C2][E2C2] G2G2G2 | ^F2F2F2 D4GA |\
(Bg)fedc (Be)dcBA | (Gd)cBAG ^F2F2D2 |\
G2A2GB AcBAG^F | GEDCB,A, G,4 :|
|: uD2 |\
G2(B2d2) edcBAG | F2(A2c2) BAGFED |\
[G2B,2]z2[G2B,2] [B2G2]z2[B2G2] | [A2^F2]z2[A2F2] [B2G2]z2[B2G2] |\
d2d2d2 c2c2c2 | B2B2B2 A2A2A2 |\
G2A2B2 A2B2c2 | B2G2G2 G4 :|
|: uD2 |\
S[G6B,6]S[G6B,6] | S[F6A,6] S[F6A,6] |\
S[B6G6] S[^c6E6] | [d2D2][d2D2][d2D2] [d4D4]z2 |\
[d2F2]z2[d2F2] [c2E2]z2[c2E2] | [B2D2]z2[c2D2] [A4F4]z2 |\
S[D6B,6]S[^F6A,6] | S[G6G,6] [G4G,4] :|
z2 |\
[G2B,2]z2[G2B,2] [G4B,4]z2 | [F2A,2]z2[F2A,2] [F4A,4]z2 |\
[G2B,2]z2[G2B,2] [G4B,4]z2 | [D6B,6] [F6A,6] |\
[d2D2]z2[d2D2] [c2E2]z2[c2E2] | [B2D2]z2[B2D2] [A4F4]z2 |\
S[D6B,6] [^F6A,6] | GEDCB,A, G,4 |]

%%sep 2 1 500

